X:1
T: Port A' Bhodaich
C:
R:Strathspey
Q: 128
K:A
M:4/4
L:1/16
e2|:AA3 e3B c3B Aa3|AA3 e3c d3c Be3|AA3 e3B cA3 e3d|cA3 e3c d3c B3e|
AA3 e3B c3B Aa3|AA3 e3c d3c Be3|AA3 e3B cA3 e3d|cA3 e3c d3c B3e|
cA3 a3g aA3 A3e|cA3 a3f =gB3 B3e|cA3 a3g a3A a3e|fa3 e=g3 d3c Be3|
cA3 a3g aA3 A3e|cA3 a3f =gB3 B3e|cA3 a3g a3A a3e|fga2 ef=g2 d3c Be3:|
